X:783
T:Bridge No 3
O:england
R:double jig
M:6/8
L:1/8
K:D
e|f2A ABA|BdB A2A|B2B A2A|Bcd efg|
f2A ABA|BdB A2A|B2B A^GA|Bdc d2:|
e|fgf efe|dBA dde|f2a a3|afa bag|
f2f efe|dBA dde|f2A A^GA|Bdc d2:|


